source/img/marker.svg

<svg width="31" height="31" viewBox="0 0 31 31" fill="none" xmlns="http://www.w3.org/2000/svg">
<path d="M23.62 8.11996C23.62 3.63509 19.9849 0 15.4994 0C11.0138 0 7.37939 3.63509 7.37939 8.11996C7.37939 14.5455 15.4994 24.0539 15.4994 24.0539C15.4994 24.0539 23.62 14.5125 23.62 8.11996ZM11.4948 7.63511C11.4948 5.42281 13.2884 3.6299 15.5 3.6299C17.7116 3.6299 19.5052 5.42281 19.5052 7.63511C19.5052 9.8474 17.7116 11.6403 15.5 11.6403C13.2884 11.6403 11.4948 9.8474 11.4948 7.63511Z" fill="#37373F"/>
<path d="M15.4986 9.60446C16.5862 9.60446 17.4679 8.72281 17.4679 7.63524C17.4679 6.54767 16.5862 5.66602 15.4986 5.66602C14.4111 5.66602 13.5294 6.54767 13.5294 7.63524C13.5294 8.72281 14.4111 9.60446 15.4986 9.60446Z" fill="#C94042"/>
<path d="M20.0902 21.229C19.4284 22.1857 18.8074 23.0187 18.2902 23.6876C23.4213 23.9962 26.7841 25.1039 28.0351 25.9278C26.5696 26.8942 22.215 28.2529 15.5003 28.2529C8.7863 28.2529 4.43107 26.8936 2.9655 25.9278C4.21652 25.1039 7.57677 23.9968 12.7027 23.6883C12.1841 23.0193 11.5625 22.187 10.9001 21.2303C4.58599 21.8519 0 23.72 0 25.9271C0 28.6431 6.94024 30.8456 15.5003 30.8456C24.0611 30.8456 31 28.6444 31 25.9271C31.0013 23.7187 26.4101 21.85 20.0902 21.229Z" fill="#37373F"/>
</svg>

<svg width="31" height="31" fill="none" xmlns="http://www.w3.org/2000/svg"><path d="M23.62 8.12A8.12 8.12 0 0015.5 0a8.12 8.12 0 00-8.12 8.12c0 6.426 8.12 15.934 8.12 15.934s8.12-9.541 8.12-15.934zm-12.125-.485a4.005 4.005 0 118.01 0 4.005 4.005 0 01-8.01 0z" fill="#37373F"/><path d="M15.499 9.604a1.97 1.97 0 100-3.938 1.97 1.97 0 000 3.938z" fill="#C94042"/><path d="M20.09 21.229a57.68 57.68 0 01-1.8 2.459c5.131.308 8.494 1.416 9.745 2.24-1.465.966-5.82 2.325-12.535 2.325-6.714 0-11.069-1.36-12.534-2.325 1.25-.824 4.61-1.931 9.737-2.24A56.825 56.825 0 0110.9 21.23C4.586 21.852 0 23.72 0 25.927c0 2.716 6.94 4.919 15.5 4.919 8.561 0 15.5-2.202 15.5-4.919.001-2.208-4.59-4.077-10.91-4.698z" fill="#37373F"/></svg>
